packages/foundations/assets/icons/functional/images/notification/question_mark_circle_filled.svg

<svg xmlns="http://www.w3.org/2000/svg" width="32" height="32" fill="none"><path fill="#1A1C1F" fill-rule="evenodd" d="m14.747 2.058-.8.108c-1.6.213-3.385.827-4.854 1.67-5.064 2.906-7.788 8.508-6.933 14.259.564 3.804 2.747 7.257 6 9.493 3.188 2.191 7.341 2.943 11.126 2.014a14 14 0 0 0 8.367-5.869 13.96 13.96 0 0 0 2.244-6.053c.113-.904.113-2.449-.001-3.36a14 14 0 0 0-2.195-5.985c-2.223-3.353-5.651-5.554-9.621-6.178-.532-.083-2.927-.154-3.333-.099m2.668 6.582c.701.18 1.163.442 1.685.959.519.513.792.995.928 1.638.148.699.084 1.622-.161 2.328-.291.84-.81 1.425-1.989 2.245-1.116.775-1.303 1.009-1.395 1.743-.059.466-.225.737-.55.894-.37.179-.829.121-1.125-.142-.289-.257-.375-.855-.225-1.565.175-.826.681-1.456 1.758-2.193 1.223-.837 1.633-1.35 1.755-2.192.113-.785-.132-1.301-.773-1.628-.624-.319-1.481-.295-2.655.073-.67.209-.994.231-1.308.086a.98.98 0 0 1-.531-.552c-.21-.503.043-1.004.667-1.321.649-.33 1.413-.467 2.642-.474.697-.005.937.014 1.277.101m-1.2 12.067a1.363 1.363 0 0 1-1.128 2.465c-1.124-.383-1.25-1.975-.198-2.5.221-.11.356-.139.657-.139.332 0 .414.022.669.174"/></svg>

<svg width="32" height="32" viewBox="0 0 32 32" fill="none" xmlns="http://www.w3.org/2000/svg"><path d="M14.747 2.058 C 14.659 2.070,14.299 2.119,13.947 2.166 C 12.347 2.379,10.562 2.993,9.093 3.836 C 4.029 6.742,1.305 12.344,2.160 18.095 C 2.724 21.899,4.907 25.352,8.160 27.588 C 11.348 29.779,15.501 30.531,19.286 29.602 C 22.731 28.757,25.677 26.691,27.653 23.733 C 28.862 21.924,29.621 19.874,29.897 17.680 C 30.010 16.776,30.010 15.231,29.896 14.320 C 29.628 12.168,28.868 10.096,27.701 8.335 C 25.478 4.982,22.050 2.781,18.080 2.157 C 17.548 2.074,15.153 2.003,14.747 2.058 M17.415 8.640 C 18.116 8.820,18.578 9.082,19.100 9.599 C 19.619 10.112,19.892 10.594,20.028 11.237 C 20.176 11.936,20.112 12.859,19.867 13.565 C 19.576 14.405,19.057 14.990,17.878 15.810 C 16.762 16.585,16.575 16.819,16.483 17.553 C 16.424 18.019,16.258 18.290,15.933 18.447 C 15.563 18.626,15.104 18.568,14.808 18.305 C 14.519 18.048,14.433 17.450,14.583 16.740 C 14.758 15.914,15.264 15.284,16.341 14.547 C 17.564 13.710,17.974 13.197,18.096 12.355 C 18.209 11.570,17.964 11.054,17.323 10.727 C 16.699 10.408,15.842 10.432,14.668 10.800 C 13.998 11.009,13.674 11.031,13.360 10.886 C 13.102 10.767,12.939 10.598,12.829 10.334 C 12.619 9.831,12.872 9.330,13.496 9.013 C 14.145 8.683,14.909 8.546,16.138 8.539 C 16.835 8.534,17.075 8.553,17.415 8.640 M16.215 20.707 C 16.751 21.027,17.004 21.663,16.832 22.255 C 16.615 23.001,15.816 23.421,15.087 23.172 C 13.963 22.789,13.837 21.197,14.889 20.672 C 15.110 20.562,15.245 20.533,15.546 20.533 C 15.878 20.533,15.960 20.555,16.215 20.707 " fill="#1A1C1F" stroke="none" fill-rule="evenodd"></path></svg>
